img/app/Vector.svg

<svg preserveAspectRatio="xMinYMin meet" width="390" height="190" viewBox="0 0 390 190" fill="none" xmlns="http://www.w3.org/2000/svg">
<path d="M383 100.5C386.59 100.5 389.5 103.41 389.5 107V183C389.5 186.59 386.59 189.5 383 189.5H307C303.41 189.5 300.5 186.59 300.5 183V107C300.5 103.41 303.41 100.5 307 100.5H383ZM207 100.5H283C286.59 100.5 289.5 103.41 289.5 107V183C289.5 186.59 286.59 189.5 283 189.5H207C203.41 189.5 200.5 186.59 200.5 183V107C200.5 103.41 203.41 100.5 207 100.5ZM107 100.5H183C186.59 100.5 189.5 103.41 189.5 107V183C189.5 186.59 186.59 189.5 183 189.5H107C103.41 189.5 100.5 186.59 100.5 183V107C100.5 103.41 103.41 100.5 107 100.5ZM7 100.5H83C86.5898 100.5 89.5 103.41 89.5 107V183C89.5 186.59 86.5899 189.5 83 189.5H7C3.41015 189.5 0.5 186.59 0.5 183V107C0.5 103.41 3.41015 100.5 7 100.5ZM7 0.5H83C86.5898 0.5 89.5 3.41015 89.5 7V83C89.5 86.5898 86.5898 89.5 83 89.5H7C3.41015 89.5 0.5 86.5898 0.5 83V7C0.5 3.41015 3.41015 0.5 7 0.5ZM107 0.5H183C186.59 0.5 189.5 3.41015 189.5 7V83C189.5 86.5899 186.59 89.5 183 89.5H107C103.41 89.5 100.5 86.5898 100.5 83V7C100.5 3.41015 103.41 0.5 107 0.5ZM207 0.5H283C286.59 0.5 289.5 3.41015 289.5 7V83C289.5 86.5899 286.59 89.5 283 89.5H207C203.41 89.5 200.5 86.5899 200.5 83V7C200.5 3.41015 203.41 0.5 207 0.5ZM307 0.5H383C386.59 0.5 389.5 3.41015 389.5 7V83C389.5 86.5899 386.59 89.5 383 89.5H307C303.41 89.5 300.5 86.5899 300.5 83V7C300.5 3.41015 303.41 0.5 307 0.5Z" stroke="url(#paint0_linear_54:774)"/>
<path d="M383 100.5C386.59 100.5 389.5 103.41 389.5 107V183C389.5 186.59 386.59 189.5 383 189.5H307C303.41 189.5 300.5 186.59 300.5 183V107C300.5 103.41 303.41 100.5 307 100.5H383ZM207 100.5H283C286.59 100.5 289.5 103.41 289.5 107V183C289.5 186.59 286.59 189.5 283 189.5H207C203.41 189.5 200.5 186.59 200.5 183V107C200.5 103.41 203.41 100.5 207 100.5ZM107 100.5H183C186.59 100.5 189.5 103.41 189.5 107V183C189.5 186.59 186.59 189.5 183 189.5H107C103.41 189.5 100.5 186.59 100.5 183V107C100.5 103.41 103.41 100.5 107 100.5ZM7 100.5H83C86.5898 100.5 89.5 103.41 89.5 107V183C89.5 186.59 86.5899 189.5 83 189.5H7C3.41015 189.5 0.5 186.59 0.5 183V107C0.5 103.41 3.41015 100.5 7 100.5ZM7 0.5H83C86.5898 0.5 89.5 3.41015 89.5 7V83C89.5 86.5898 86.5898 89.5 83 89.5H7C3.41015 89.5 0.5 86.5898 0.5 83V7C0.5 3.41015 3.41015 0.5 7 0.5ZM107 0.5H183C186.59 0.5 189.5 3.41015 189.5 7V83C189.5 86.5899 186.59 89.5 183 89.5H107C103.41 89.5 100.5 86.5898 100.5 83V7C100.5 3.41015 103.41 0.5 107 0.5ZM207 0.5H283C286.59 0.5 289.5 3.41015 289.5 7V83C289.5 86.5899 286.59 89.5 283 89.5H207C203.41 89.5 200.5 86.5899 200.5 83V7C200.5 3.41015 203.41 0.5 207 0.5ZM307 0.5H383C386.59 0.5 389.5 3.41015 389.5 7V83C389.5 86.5899 386.59 89.5 383 89.5H307C303.41 89.5 300.5 86.5899 300.5 83V7C300.5 3.41015 303.41 0.5 307 0.5Z" stroke="url(#paint1_linear_54:774)"/>
<defs>
<linearGradient id="paint0_linear_54:774" x1="195" y1="-11.5" x2="195" y2="190" gradientUnits="userSpaceOnUse">
<stop stop-color="#F7DE52"/>
<stop offset="0.151478" stop-color="#FCB5EF" stop-opacity="0"/>
<stop offset="0.886829" stop-color="#FCB5EF" stop-opacity="0"/>
<stop offset="1" stop-color="#F7DE52"/>
</linearGradient>
<linearGradient id="paint1_linear_54:774" x1="0" y1="95" x2="390" y2="95" gradientUnits="userSpaceOnUse">
<stop stop-color="#F7DE52"/>
<stop offset="0.0550128" stop-color="#FCB5EF" stop-opacity="0"/>
<stop offset="0.945325" stop-color="#FCB5EF" stop-opacity="0"/>
<stop offset="1" stop-color="#F7DE52"/>
</linearGradient>
</defs>
</svg>

<svg preserveAspectRatio="xMinYMin meet" width="390" height="190" fill="none" xmlns="http://www.w3.org/2000/svg"><path d="M383 100.5a6.5 6.5 0 016.5 6.5v76a6.5 6.5 0 01-6.5 6.5h-76a6.5 6.5 0 01-6.5-6.5v-76a6.5 6.5 0 016.5-6.5h76zm-176 0h76a6.5 6.5 0 016.5 6.5v76a6.5 6.5 0 01-6.5 6.5h-76a6.5 6.5 0 01-6.5-6.5v-76a6.5 6.5 0 016.5-6.5zm-100 0h76a6.5 6.5 0 016.5 6.5v76a6.5 6.5 0 01-6.5 6.5h-76a6.5 6.5 0 01-6.5-6.5v-76a6.5 6.5 0 016.5-6.5zm-100 0h76a6.5 6.5 0 016.5 6.5v76a6.5 6.5 0 01-6.5 6.5H7A6.5 6.5 0 01.5 183v-76a6.5 6.5 0 016.5-6.5zM7 .5h76A6.5 6.5 0 0189.5 7v76a6.5 6.5 0 01-6.5 6.5H7A6.5 6.5 0 01.5 83V7A6.5 6.5 0 017 .5zm100 0h76a6.5 6.5 0 016.5 6.5v76a6.5 6.5 0 01-6.5 6.5h-76a6.5 6.5 0 01-6.5-6.5V7A6.5 6.5 0 01107 .5zm100 0h76a6.5 6.5 0 016.5 6.5v76a6.5 6.5 0 01-6.5 6.5h-76a6.5 6.5 0 01-6.5-6.5V7A6.5 6.5 0 01207 .5zm100 0h76a6.5 6.5 0 016.5 6.5v76a6.5 6.5 0 01-6.5 6.5h-76a6.5 6.5 0 01-6.5-6.5V7A6.5 6.5 0 01307 .5z" stroke="url(#paint0_linear_54:774)"/><path d="M383 100.5a6.5 6.5 0 016.5 6.5v76a6.5 6.5 0 01-6.5 6.5h-76a6.5 6.5 0 01-6.5-6.5v-76a6.5 6.5 0 016.5-6.5h76zm-176 0h76a6.5 6.5 0 016.5 6.5v76a6.5 6.5 0 01-6.5 6.5h-76a6.5 6.5 0 01-6.5-6.5v-76a6.5 6.5 0 016.5-6.5zm-100 0h76a6.5 6.5 0 016.5 6.5v76a6.5 6.5 0 01-6.5 6.5h-76a6.5 6.5 0 01-6.5-6.5v-76a6.5 6.5 0 016.5-6.5zm-100 0h76a6.5 6.5 0 016.5 6.5v76a6.5 6.5 0 01-6.5 6.5H7A6.5 6.5 0 01.5 183v-76a6.5 6.5 0 016.5-6.5zM7 .5h76A6.5 6.5 0 0189.5 7v76a6.5 6.5 0 01-6.5 6.5H7A6.5 6.5 0 01.5 83V7A6.5 6.5 0 017 .5zm100 0h76a6.5 6.5 0 016.5 6.5v76a6.5 6.5 0 01-6.5 6.5h-76a6.5 6.5 0 01-6.5-6.5V7A6.5 6.5 0 01107 .5zm100 0h76a6.5 6.5 0 016.5 6.5v76a6.5 6.5 0 01-6.5 6.5h-76a6.5 6.5 0 01-6.5-6.5V7A6.5 6.5 0 01207 .5zm100 0h76a6.5 6.5 0 016.5 6.5v76a6.5 6.5 0 01-6.5 6.5h-76a6.5 6.5 0 01-6.5-6.5V7A6.5 6.5 0 01307 .5z" stroke="url(#paint1_linear_54:774)"/><defs><linearGradient id="paint0_linear_54:774" x1="195" y1="-11.5" x2="195" y2="190" gradientUnits="userSpaceOnUse"><stop stop-color="#F7DE52"/><stop offset=".151" stop-color="#FCB5EF" stop-opacity="0"/><stop offset=".887" stop-color="#FCB5EF" stop-opacity="0"/><stop offset="1" stop-color="#F7DE52"/></linearGradient><linearGradient id="paint1_linear_54:774" x1="0" y1="95" x2="390" y2="95" gradientUnits="userSpaceOnUse"><stop stop-color="#F7DE52"/><stop offset=".055" stop-color="#FCB5EF" stop-opacity="0"/><stop offset=".945" stop-color="#FCB5EF" stop-opacity="0"/><stop offset="1" stop-color="#F7DE52"/></linearGradient></defs></svg>
